/* XPM */
static char *collectible[] = {
/* columns rows colors chars-per-pixel */
"64 64 81 1 ",
"  c #A15F00",
". c #A56201",
"X c #AA6501",
"o c #AC6907",
"O c #AE6B09",
"+ c #B36A00",
"@ c #BA6E00",
"# c #B26D0B",
"$ c #BD7101",
"% c #B6720E",
"& c #BF750B",
"* c #B77210",
"= c #BA7512",
"- c #BD7814",
"; c #C37400",
": c #C87700",
"> c #CD7A00",
", c #C0770C",
"< c #CA7C0A",
"1 c #D37E01",
"2 c #C07B16",
"3 c #C37E19",
"4 c #D68001",
"5 c #DC8300",
"6 c #D6840C",
"7 c #CF8417",
"8 c #C6801B",
"9 c #CB841D",
"0 c #DC8C17",
"q c #D0871C",
"w c #E18600",
"e c #E68900",
"r c #EC8D00",
"t c #E58D0B",
"y c #E88E0A",
"u c #F08F00",
"i c #EE9004",
"p c #EE940F",
"a c #F49200",
"s c #FA9600",
"d c #FE9901",
"f c #F2950D",
"g c #FE9D0B",
"h c #E29017",
"j c #EC9310",
"k c #F29711",
"l c #F59A13",
"z c #FD9E11",
"x c #F09B1E",
"c c #FA9F18",
"v c #FFA115",
"b c #FDA31B",
"n c #CC8620",
"m c #CE8822",
"M c #D28C25",
"N c #D68F28",
"B c #D69028",
"V c #DC952C",
"C c #DF982F",
"Z c #E09527",
"A c #EA9820",
"S c #E59A2B",
"D c #F49E20",
"F c #E39C32",
"G c #E89F36",
"H c #F6A123",
"J c #FDA523",
"K c #F9A428",
"L c #FDA92D",
"P c #E7A037",
"I c #EAA135",
"U c #ECA439",
"Y c #F4A634",
"T c #FCAC35",
"R c #F4AA3E",
"E c #FBAD3A",
"W c #FEB03E",
"Q c #F6AD40",
"! c #F8AE42",
"~ c #FBB142",
"^ c None",
/* pixels */
"^^^^^^^^^^^^^^^^^^^^^^^^^^^^^^^^^^^^^^^^^^^^^^^^^^^^^^^^^^^^^^^^",
"^^^^^^^^^^^^^^^^^^^^^^^^^^^^^^^^^^^^^^^^^^^^^^^^^^^^^^^^^^^^^^^^",
"^^^^^^^^^^^^^^^^^^^^^^^^^^^^^^^^^^^^^^^^^^^^^^^^^^^^^^^^^^^^^^^^",
"^^^^^^^^^^^^^^^^^^^^^^^^^^^^^^^^^^^^^^^^^^^^^^^^^^^^^^^^^^^^^^^^",
"^^^^^^^^^^^^^^^^^^^^^^^^^^^^^^^^^^^^^^^^^^^^^^^^^^^^^^^^^^^^^^^^",
"^^^^^^^^^^^^^^^^^^^^^^^^^^^^^^^^^^^^^^^^^^^^^^^^^^^^^^^^^^^^^^^^",
"^^^^^^^^^^^^^^^^^^^^^^^^^^^^^^^^^^^^^^^^^^^^^^^^^^^^^^^^^^^^^^^^",
"^^^^^^^^^^^^^^^^^^^^^^^^^^^^^^^^^^^^^^^^^^^^^^^^^^^^^^^^^^^^^^^^",
"^^^^^^^^^^^^^^^^^^^^^^^^^^^^^^^^^^^^^^^^^^^^^^^^^^^^^^^^^^^^^^^^",
"^^^^^^^^^^^^^^^^^^^^^^^^^^^^^^^^^^^^^^^^^^^^^^^^^^^^^^^^^^^^^^^^",
"^^^^^^^^^^^^^^^^^^^^^^^^^^^^^^^^^^^^^^^^^^^^^^^^^^^^^^^^^^^^^^^^",
"^^^^^^^^^^^^^^^^^^^^^^^^^^^^^^^^^^^^^^^^^^^^^^^^^^^^^^^^^^^^^^^^",
"^^^^^^^^^^^^^^^^^^^^^^^^^^^^^^^^^^^^^^^^^^^^^^^^^^^^^^^^^^^^^^^^",
"^^^^^^^^^^^^^^^^^^^^^^^^^^^^^^^^^^^^^^^^^^^^^^^^^^^^^^^^^^^^^^^^",
"^^^^^^^^^^^^^^^^^^^^^^^^^^^^^^^^^^^^^^^^^^^^^^^^^^^^^^^^^^^^^^^^",
"^^^^^^^^^^^^^^^^^^^^^^^^^^^^^^^^^^^^^^^^^^^^^^^^^^^^^^^^^^^^^^^^",
"^^^^^^^^^^^^^^^^^^^^^^^^^^^^^^^^^^^^^^  ..oo#%*##o..^^^^^^^^^^^^",
"^^^^^^^^^^^^^^^^^^^^^^^^^^^^^^^^^^^^^^##*==-23333=O.^^^^^^^^^^^^",
"^^^^^^^^^^^^^^^^^^^^^^^^^^^^^^^^ .oO=22nmNVCFFGFCm*o^^^^^^^^^^^^",
"^^^^^^^^^^^^^^^^^^^^^^^^^^^^^^^^O#=28MVFFQQQ!!!!QV=o^^^^^^^^^^^^",
"^^^^^^^^^^^^^^^^^^^^^^^^^^^^ .O*28BFGUREQ!!!!!~!QV-o^^^^^^^^^^^^",
"^^^^^^^^^^^^^^^^^^^^^^^^^^^^o#=8NFUR!~E~!EETTTETYV-#^^^^^^^^^^^^",
"^^^^^^^^^^^^^^.XX+XX..^^^^oO=nVGU!!!!ETLKHDDDDDDxh<@+X..^^^^^^^^",
"^^^^^^^^^^^^^^++@@@+XX^^^^#-nVUE~~ETTLJJlkkjpkjkpt1:@+XX^^^^^^^^",
"^^^^^^^^^^^^X+:1151>$+.  #3MPRRETLJbvvzgsfrryayurrww1>@+X.^^^^^^",
"^^^^^^^^^^^^@;1were5>@X..#qSYELLJbzggdddsurrrrrrrrurr11;+.^^^^^^",
"^^^^^^^^..+:15wrrree5>@XX&0xbbvvggddddddaarrrrrrrrrrrew1$+. ^^^^",
"^^^^^^^^X+;>5errrrrre5:;:<jgggddddddddddauurrrrrrrrrrurw1@X.^^^^",
"^^^^^^X+@:1werrrrrrrrewwwesgddddddddddddsuurrrrrrrrruurew>+X^^^^",
"^^^^^^+@:5errrurrrrrruraasdddddddddddddddaurrrrrrrreeerre1@X^^^^",
"^^^^X@:15errrrrrrrrraasddddddddddddddddddaurrrrrrewwwwrre5;+^^^^",
"^^^^+$1wrrrrrrrrurruusddddddddddddddddddddururrrrew15werr5:@^^^^",
"^^^^+;5errrrrrrrrrrrisdddddddddddddddddddsauurrrrew11werr1;+^^^^",
"^^^^+@1wrrrrrrrrrrruaaddddddssddsdddddddddaurrrrrwwwwwrru1;+^^^^",
"^^^^.+:15rrrrrrrrrrrisddddddaaaaasddddddddsaurrrrreeerrrw>+X^^^^",
"^^^^.X+;>4werrrrrrrriasdddddsaaauaaaassadddaurrrrrrurrrw1;+ ^^^^",
"^^^^^^XX+;15rrrrrrrrraaaddddsirrruuuuuasdddsaurrrrrrure1:+^^^^^^",
"^^^^^^ .X@:>5errrurreewradddsaarurrrruuasdddsaurrrrrew1;+X^^^^^^",
"^^^^^^^^^^+@:4werurw5><6jlgdddaauuurruusdddddaarurrew1;+X ^^^^^^",
"^^^^^^^^^^XX+;>5www1:;,7Abbvggdssauuuuusddddddsaurew>;+   ^^^^^^",
"^^^^^^^^^^^^XX@;>>>;+o-MUTLJbvddddaaaasddddddddsae5:@+^^^^^^^^^^",
"^^^^^^^^^^^^ .X+$:;@.o-MU~WTLJvvgggdgdddddddssare5:@XX^^^^^^^^^^",
"^^^^^^^^^^^^^^^^^^^^ X%9FR!!WTTLJbczzggggggaarw4:;+X^^^^^^^^^^^^",
"^^^^^^^^^^^^^^^^^^^^ .#2MFPQRWWETLLJJJbbbcly51::$+X.^^^^^^^^^^^^",
"^^^^^^^^^^^^^^^^^^^^^^oO*-mVFIRRE!EETTEETIZ6$+X+^^^^^^^^^^^^^^^^",
"^^^^^^^^^^^^^^^^^^^^^^..o#2nmMVFFGGGGGPPPZ9-O...^^^^^^^^^^^^^^^^",
"^^^^^^^^^^^^^^^^^^^^^^^^^^^^**=-88qq99mmn3=#^^^^^^^^^^^^^^^^^^^^",
"^^^^^^^^^^^^^^^^^^^^^^^^^^^^XXoO*-,,,,,-=*#o^^^^^^^^^^^^^^^^^^^^",
"^^^^^^^^^^^^^^^^^^^^^^^^^^^^^^^^^^^^^^^^^^^^^^^^^^^^^^^^^^^^^^^^",
"^^^^^^^^^^^^^^^^^^^^^^^^^^^^^^^^^^^^^^^^^^^^^^^^^^^^^^^^^^^^^^^^",
"^^^^^^^^^^^^^^^^^^^^^^^^^^^^^^^^^^^^^^^^^^^^^^^^^^^^^^^^^^^^^^^^",
"^^^^^^^^^^^^^^^^^^^^^^^^^^^^^^^^^^^^^^^^^^^^^^^^^^^^^^^^^^^^^^^^",
"^^^^^^^^^^^^^^^^^^^^^^^^^^^^^^^^^^^^^^^^^^^^^^^^^^^^^^^^^^^^^^^^",
"^^^^^^^^^^^^^^^^^^^^^^^^^^^^^^^^^^^^^^^^^^^^^^^^^^^^^^^^^^^^^^^^",
"^^^^^^^^^^^^^^^^^^^^^^^^^^^^^^^^^^^^^^^^^^^^^^^^^^^^^^^^^^^^^^^^",
"^^^^^^^^^^^^^^^^^^^^^^^^^^^^^^^^^^^^^^^^^^^^^^^^^^^^^^^^^^^^^^^^",
"^^^^^^^^^^^^^^^^^^^^^^^^^^^^^^^^^^^^^^^^^^^^^^^^^^^^^^^^^^^^^^^^",
"^^^^^^^^^^^^^^^^^^^^^^^^^^^^^^^^^^^^^^^^^^^^^^^^^^^^^^^^^^^^^^^^",
"^^^^^^^^^^^^^^^^^^^^^^^^^^^^^^^^^^^^^^^^^^^^^^^^^^^^^^^^^^^^^^^^",
"^^^^^^^^^^^^^^^^^^^^^^^^^^^^^^^^^^^^^^^^^^^^^^^^^^^^^^^^^^^^^^^^",
"^^^^^^^^^^^^^^^^^^^^^^^^^^^^^^^^^^^^^^^^^^^^^^^^^^^^^^^^^^^^^^^^",
"^^^^^^^^^^^^^^^^^^^^^^^^^^^^^^^^^^^^^^^^^^^^^^^^^^^^^^^^^^^^^^^^",
"^^^^^^^^^^^^^^^^^^^^^^^^^^^^^^^^^^^^^^^^^^^^^^^^^^^^^^^^^^^^^^^^",
"^^^^^^^^^^^^^^^^^^^^^^^^^^^^^^^^^^^^^^^^^^^^^^^^^^^^^^^^^^^^^^^^"
};
