/* XPM */
static char *exit[] = {
/* columns rows colors chars-per-pixel */
"64 64 2 1 ",
"  c black",
". c blue",
/* pixels */
"                                                                ",
"                                                                ",
"                                                                ",
"                                                                ",
"                                                                ",
"                                                                ",
"                                                                ",
"                                                                ",
"                                                                ",
"                                                                ",
"                                                                ",
"                                                                ",
"                                                                ",
"                                                                ",
"                                                                ",
"                                                                ",
"                                                                ",
"                                                                ",
"                                                                ",
"                                                                ",
"                                                                ",
"                                                                ",
"                                                                ",
"                                                                ",
"           ..............................................       ",
"           ..............................................       ",
"           ..............................................       ",
"           ..............................................       ",
"           ..............................................       ",
"           ..............................................       ",
"           ..............................................       ",
"           ..............................................       ",
"           ..............................................       ",
"           ..............................................       ",
"           ..............................................       ",
"           ..............................................       ",
"           ..............................................       ",
"           ..............................................       ",
"           ..............................................       ",
"           ..............................................       ",
"           ..............................................       ",
"           ..............................................       ",
"           ..............................................       ",
"           ..............................................       ",
"                                                                ",
"                                                                ",
"                                                                ",
"                                                                ",
"                                                                ",
"                                                                ",
"                                                                ",
"                                                                ",
"                                                                ",
"                                                                ",
"                                                                ",
"                                                                ",
"                                                                ",
"                                                                ",
"                                                                ",
"                                                                ",
"                                                                ",
"                                                                ",
"                                                                ",
"                                                                "
};
