/* XPM */
static char *player[] = {
/* columns rows colors chars-per-pixel */
"64 64 193 2 ",
"   c #7B6C3C",
".  c #7F703F",
"X  c #29454F",
"o  c #2A4651",
"O  c #2C4A55",
"+  c #2F4E59",
"@  c #31515D",
"#  c #3F5B5E",
"$  c #304F5B",
"%  c #345662",
"&  c #365A66",
"*  c #3B5B64",
"=  c #375B68",
"-  c #395D6A",
";  c #3C616D",
":  c #3E6067",
">  c #3D6572",
",  c #3F6876",
"<  c #3F6A78",
"1  c #445D5D",
"2  c #4B5F5A",
"3  c #5B5B5B",
"4  c #555454",
"5  c #5C644F",
"6  c #4C605A",
"7  c #47605E",
"8  c #536255",
"9  c #5B6552",
"0  c #536458",
"q  c #6C6846",
"w  c #62654B",
"e  c #65684E",
"r  c #6B6947",
"t  c #746B43",
"y  c #6E735A",
"u  c #787759",
"i  c #40636E",
"p  c #556B66",
"a  c #426672",
"s  c #456975",
"d  c #4A6B76",
"f  c #416C7B",
"g  c #4C6E79",
"h  c #4D717D",
"j  c #52737E",
"k  c #656464",
"l  c #6B6B6B",
"z  c #647B79",
"x  c #737272",
"c  c #7C7C7C",
"v  c #787777",
"b  c #6C7663",
"n  c #B37A1B",
"m  c #BD7F19",
"M  c #99742C",
"N  c #856E36",
"B  c #8C753A",
"V  c #8C7133",
"C  c #987834",
"Z  c #A67A28",
"A  c #B07E24",
"S  c #C87F0E",
"D  c #C37E12",
"F  c #857647",
"G  c #728278",
"H  c #6C807A",
"J  c #B28027",
"K  c #AA802F",
"L  c #CD810D",
"P  c #DA8708",
"I  c #C4851C",
"U  c #C98517",
"Y  c #D98C12",
"T  c #D58A13",
"R  c #E58901",
"E  c #EB8C00",
"W  c #E18E0C",
"Q  c #ED9104",
"!  c #E4900D",
"~  c #EC9309",
"^  c #F49402",
"/  c #FC9700",
"(  c #FE9900",
")  c #C28620",
"_  c #447181",
"`  c #547681",
"'  c #567984",
"]  c #5A7B86",
"[  c #5D7E8A",
"{  c #607F89",
"}  c #5E818E",
"|  c #5F8490",
" . c #63828D",
".. c #68858F",
"X. c #648591",
"o. c #698791",
"O. c #678893",
"+. c #6B8A94",
"@. c #6D8E99",
"#. c #748E94",
"$. c #6F909C",
"%. c #73929D",
"&. c #7A9397",
"*. c #7696A1",
"=. c #7B9AA5",
"-. c #7E9DA9",
";. c #7B97A1",
":. c #848383",
">. c #898989",
",. c #929292",
"<. c #9B9B9B",
"1. c #8E9090",
"2. c #829CA5",
"3. c #819FA9",
"4. c #84A2AD",
"5. c #8EA5AC",
"6. c #96A5AA",
"7. c #8CA9B4",
"8. c #8BA8B2",
"9. c #91AEB9",
"0. c #96ADB3",
"q. c #94B1BB",
"w. c #9CB3BB",
"e. c #A3A4A4",
"r. c #ABACAC",
"t. c #A8AEB0",
"y. c #A3B6BD",
"u. c #ABB0B1",
"i. c #B2B4B4",
"p. c #B6BABB",
"a. c #99B6C1",
"s. c #9EBBC5",
"d. c #A2BCC5",
"f. c #ABBDC3",
"g. c #A3BFC8",
"h. c #A5C2CB",
"j. c #A9C4CD",
"k. c #AEC0C5",
"l. c #B3C4C9",
"z. c #BAC4C7",
"x. c #AEC9D3",
"c. c #AAC6D0",
"v. c #B2CCD5",
"b. c #BDCDD3",
"n. c #B3CED8",
"m. c #B6D1DA",
"M. c #BAD4DD",
"N. c #BFD0D6",
"B. c #BCD6E0",
"V. c #BED9E2",
"C. c #C2C3C4",
"Z. c #C7C8C9",
"A. c #C6CFD1",
"S. c #C3D1D6",
"D. c #CED2D4",
"F. c #C1D5DC",
"G. c #CCD9DD",
"H. c #D2D4D4",
"J. c #D3DADC",
"K. c #DBDCDD",
"L. c #C2DCE5",
"P. c #CADDE3",
"I. c #C5DFE8",
"U. c #D1DFE3",
"Y. c #CAE4ED",
"T. c #D5E1E5",
"R. c #DBE3E5",
"E. c #D4E5EB",
"W. c #DBE5E9",
"Q. c #DEE9ED",
"!. c #CDE6F0",
"~. c #CFE8F2",
"^. c #D3ECF5",
"/. c #DBEEF4",
"(. c #D6EFF8",
"). c #D8EFF8",
"_. c #D7F0F9",
"`. c #DBF1FA",
"'. c #E1E3E4",
"]. c #E4EAED",
"[. c #E6E9EB",
"{. c #E4EDF1",
"}. c #EBEEF0",
"|. c #ECF3F5",
" X c #E2F4FA",
".X c #ECF6FA",
"XX c #EEF9FD",
"oX c #E6F2F6",
"OX c #F0F4F6",
"+X c #F0F7F9",
"@X c #F2F9FC",
"#X c #F9FEFF",
"$X c None",
/* pixels */
"$X$X$X$X$X$X$X$X$X$X$X$X$X$X$X$X$X$X$X$X$X$X$X$X_ _ _ _ < f f _ _ f , < f _ _ _ $X$X$X$X$X$X$X$X$X$X$X$X$X$X$X$X$X$X$X$X$X$X$X$X",
"$X$X$X$X$X$X$X$X$X$X$X$X$X$X$X$X$X$X$X$X$X$X$X$Xf f f f , , f f f < , , f f _ f $X$X$X$X$X$X$X$X$X$X$X$X$X$X$X$X$X$X$X$X$X$X$X$X",
"$X$X$X$X$X$X$X$X$X$X$X$X$X$X$X$X$X$X$X$X_ f f , , , , > ; ; ; ; > ; > > > , < , < < _ _ $X$X$X$X$X$X$X$X$X$X$X$X$X$X$X$X$X$X$X$X",
"$X$X$X$X$X$X$X$X$X$X$X$X$X$X$X$X$X$X$X$Xf f s > ; ; ; - ; - = = = = = ; > ; ; > ; > < < $X$X$X$X$X$X$X$X$X$X$X$X$X$X$X$X$X$X$X$X",
"$X$X$X$X$X$X$X$X$X$X$X$X$X$X$X$X< f f s a ; ; - = = - = = = = & & = = = = = = = ; ; ; ; > > < f $X$X$X$X$X$X$X$X$X$X$X$X$X$X$X$X",
"$X$X$X$X$X$X$X$X$X$X$X$X$X$X$X$X< s > ; ; = & & & & & & & & & & & & & & & & & = & & % = ; > < < $X$X$X$X$X$X$X$X$X$X$X$X$X$X$X$X",
"$X$X$X$X$X$X$X$X$X$X$X$X$X$Xf f > ; : = = = & & & & = = & & & & & & & & & & & & & & & & ; ; ; > f f $X$X$X$X$X$X$X$X$X$X$X$X$X$X",
"$X$X$X$X$X$X$X$X$X$X$X$X$X$X, , ; - = & & = & & = & = = & & & & & & & & & & = & & & & & & & ; ; , < $X$X$X$X$X$X$X$X$X$X$X$X$X$X",
"$X$X$X$X$X$X$X$X$X$X$X$Xf , > ; = = = & & & & = = = = = & = & & & & & & & * = = & & & & & * = = - ; > , $X$X$X$X$X$X$X$X$X$X$X$X",
"$X$X$X$X$X$X$X$X$X$X$X$Xf , ; = = & * & & & & & = = & & & & & & & & = & & = = = = & & & & & & & = - > > $X$X$X$X$X$X$X$X$X$X$X$X",
"$X$X$X$X$X$X$X$X$X$Xf < > ; = & & & & & & & = = & & & & & & & & & & & & & & & = = & & & & & & & = = - > , , $X$X$X$X$X$X$X$X$X$X",
"$X$X$X$X$X$X$X$X$X$Xf > ; = & & & & & & & & = = = & & & & & & & & = & & & & & & & & & & = & & & & = = = ; , $X$X$X$X$X$X$X$X$X$X",
"$X$X$X$X$X$X$X$X< < > ; = & & & & = & & & & & = & & & & & & & & = = & & & & & & & & & = = = & & & & = = - > > < $X$X$X$X$X$X$X$X",
"$X$X$X$X$X$X$X$X< > ; = & & & & & & & & = & & & & & & & & & & = = = = & & & & & & & & & = = = & & & & & = ; > > $X$X$X$X$X$X$X$X",
"$X$X$X$X$X$X$X$X> > = = & & & & & & & & = = & & & & & = = = & & & & & & & & & & & & & & & & & & & & & & & = ; ; $X$X$X$X$X$X$X$X",
"$X$X$X$X$X$X$X$X; ; = & & & & & & & & & = = & & & & * & = = = & & & & & & & & & & & & & & & & & & & & & & & = ; $X$X$X$X$X$X$X$X",
"$X$X$X$X$X$X> ; - & & & & & & & & & & & & & & & & = & & = & & & & & & & & & & & & & & & & & & & & & & & & & & - ; > $X$X$X$X$X$X",
"$X$X$X$X$X$X> ; = & & & & & & & & & & % & & & & & & & & & & = & & & & & & & & & & & & & & & & & & & & & & & & = ; > $X$X$X$X$X$X",
"$X$X$X$X$X$X; - = & & & & & & & * % % * & & & & & & & & & & & & & & & & & & & & & & & & & % % % & & & & & & & = - ; $X$X$X$X$X$X",
"$X$X$X$X$X$X- = = & & & & & - - ; i i ; - = & & & & & & & & & & & & & & & & & & & & - : ; ; i : - = & & & & & = = - $X$X$X$X$X$X",
"$X$X$X$X, > = = = = & & & = ; s ` ] ] ` j s = & & & & & & & & & & = & & & & & & & - i d ` ' ] ' g a - & & & & & & - - ; $X$X$X$X",
"$X$X$X$X> ; - = = = & = - d ] +.*.4.4.-.*.o.` s - & & & & = & & & & & & & & & = ; g [ @.=.4.4.4.%.O.h a = & & & & = - > $X$X$X$X",
"$X$X$X$X; - = = = & & - g o.7.g.v.B.B.M.v.g.4.+.s = & & & & & & & & & & & & & ; ` %.q.c.m.M.M.m.x.a.*.] a = & & & = - - $X$X$X$X",
"$X$X$X$X- = = & & & - d +.7.v.Y.~.^.(.(.^.I.x.7. .s - & & & & & & = & & & = ; ` *.a.M.!.(._.`.^.!.V.g.-.` a = & & = - - $X$X$X$X",
"$X$X$X$X= = = & & - a  .9.n.Y.^.(.(.).(._.^.!.x.4.] > & & & & & - & & & & - g +.s.V.Y.(._._.(.(.(.~.L.h.%.j ; & & & = = $X$X$X$X",
"$X$X$X$X= = = & & - ` *.x.!.^.).).(.(.(._._._.I.s.*.g & & & & & & - & & & a } 4.m.^._._.(.(.(.(.(.`.).B.9.O.s & & & = = $X$X$X$X",
"$X$X$X$X= = & & & s O.9.V.(.(.)._.`.(._._._.`.Y.n.7.' - & & & & & & & & & g %.d.Y.(.(.(._._.(.(.(._.`.Y.c.3.h = & & & = - - $X$X",
"$X$X$X$X= = & & & g *.g.Y.).(.).`.`.`. X X`.`.^.I.s. .a & % & & & & & & & j 4.v.Y.`.`. X X X`.`.`._.).^.B.9.' - & & & = - - $X$X",
"$X$X- - = = & & & ` 4.v.!.(.).). XXX#X@X@X.X`.).Y.j.@.s - & & & & & & & & ' 9.M.^.`..XXX#X@X@X X`.`._.^.I.s.X.; = & & = - - $X$X",
"$X$X- - = = & & = ` 9.M.~.).). X.X.X}.}.|.oXoX`.^.x.$.d - % & & & & & & = ' q.V.^. XoXOX|.|.OX|.oX`._.^.Y.j.@.s - & & = = - $X$X",
"$X$X- - = & & & - [ a.L.^.`. X.XOX[.H.H.K.'.|.oX^.x.$.d - & & & & & & & = ' a.L.{..X[.K.H.H.'.}..X.X`.^.~.x.%.g - & & & = = $X$X",
"$X$X- - = & & & > { s.I.^.`.XX|.'.Z.i.e.r.Z.[.oXE.j.@.s - & & & = & = & = ' q.M.].}.H.p.r.e.C.H.}.XX`.(.~.v.;.j ; & & & & = $X$X",
"$X$X= = & & & = > X.g.I.^. XXX[.Z.6.F x c <.D.W.Y.s.} > - & = - * * = = % h 4.n.W.K.r.>.v v ,.i.'.OXoX/.^.n.-.` i % & & & & $X$X",
"$X$X& & & & & = a X.g.Y.^. XXX'.f.>.l 4 3 :.C.J.n.9.' : 7 0 9 e e w 9 7 * d %.h.T.D.,.l 3 p { e.K.OXoX/.(.m.3.` ; % & & & & $X$X",
"$X$X$X$X= & & & a X.g.!.^.`.XXU.r.:.k 4 3 G p.S.h.3.` 7 q B K J J K C N 5 p +.0.G.A.1.k 4 3 x <.H.oX X(.).m.;.` i % & & = = $X$X",
"$X$X$X$X= & % = - X.g.!.^.`..XR.f.1.x k l 1.z.b.0.#.b t Z I Y ! ! Y T J N y z 4.b.A.<.v k l F a.J.{. X(.).m.2.` i % & & = = $X$X",
"$X$X$X$X& & & = ; X.g.I.^.). XQ.H.i.,.:.1.t.N.n.4.G F J T ~ ^ ^ / ^ ~ ! I K y #.j.N.i.<.:.>.e.C.W. X/.).).m.2.` - & & & & & $X$X",
"$X$X$X$X& & & & - { a.I.^.).`. X'.A.f.u.p.b.M.j.#.u K T ^ ( ( ( ( ( ( / ~ J F G 0.l.b.z.t.u.C.U./.`.(.(.^.n.%._ ; & & & & & $X$X",
"$X$X$X$X& & & & = ` 7.n.!.).).(./.E.U.K.E.P.v.0.G F I Q / ( ( ( ( ( ( ( / T C G 2.w.F.E.P.U.E.^./.`.(.^.!.g.+.s - & & & $X$X$X$X",
"$X$X$X$X& & & & & g -.g.Y.).(.^.(.`. XoX_.V.a.&.u C T / ( ( ( ( ( ( ( ( ( Q J B z -.n.^.`. X`.`.`.(.`.~.L.a.[ i & & & = $X$X$X$X",
"$X$X$X$X& & & % % a +.9.I.).(.^.(.).).(.Y.g.=.{ u Z Y ( ( ( / ( ( ( ( ( ( ~ I B p | 9.B.!.`._.(.(.`.`.Y.v.4.j & & & & & $X$X$X$X",
"$X$X$X$X& & & & % ; ' -.v.!.^.(.).(.^.I.g.4.` p t Z W / / / / / ( ( ( / / ~ I V 9 g @.q.M.!.^.(.(.`.(.V.a.$.d & & & & & $X$X$X$X",
"$X$X$X$X@ @ % & & - a X.9.B.!.(.).~.I.g.3.[ a 7 q Z P ^ ^ ^ ^ ^ / ^ ^ ^ ^ R m N 6 ; _ +.9.n.Y.(.(.^.Y.j.=.` i & & & % % $X$X$X$X",
"$X$X$X$X@ @ & & = = = g @.9.x.B.B.v.d.3.[ a - # w V U P R E E ^ Q Q Q Q R L Z   2 = - g @.7.j.n.M.m.h.8.{ a - & & & % @ $X$X$X$X",
"$X$XX O + @ % & = = = i _ [ ;.4.4.;.O.` a - & * 7 r M D P R R R E R R P S n N 5 1 = & - d ] $.2.4.-.@.] d & & & & % @ + O X $X$X",
"$X$XX o O + % & % = % = - > ` ' ' ` a - & & = = * 8   M n D S S L L S m Z V w 1 & = & & = > g ` ] ` g i & & & & & % + O X X $X$X",
"$X$XX X X + @ & % = = % = - - i i - - * = % = = & # 6 5   N M M M M N     8 1 * & & & & & = - - i : - - & & & & = % + O o X X X ",
"$X$XX X X O @ % = % = = = = & & % % % % = = = % & = = # 6 4 w r q r 5 8 # % & & & & & & & & & & % % & & & & & & & % + o X X X X ",
"X X X X X O O @ & & & & & & & & & % & & & & & & & & & & * 1 1 1 1 1 1 1 * & & & & & & & & & & & & & & & & & & & % + o o o X X X ",
"X X X X X o O + @ & & & & & & & & & & & & & % & & & & & & = = = - = = = & & % & & & & & & & & & & & & & & & & % @ O o X X X X X ",
"X X X X X X o O @ & & & & & - - & & & & & & % % % & & - = : ; i a ; - - = = & & % & & & & & & & & & & & & & * % + O o X X X X X ",
"X X X X X X o O O @ % & & & - = & & & & = - i a d j ` {  . .o.+.o.o...{ { ' ` g d i ; & & * & & & & & & & % % + O O o X X X X X ",
"X X X X X X X o O + @ & & & & & = & & & a g ] o.2.6.w.y.y.k.k.l.f.f.f.f.y.y.5.2.#.{ j a - % & & & & & & & & + + o o X X X X X X ",
"X X X X X X X o O O @ % & & & & = - d j  .&.5.y.f.A.J.U.W.W.W.].Q.W.].W.U.G.A.l.y.6.2.o.` d ; - & & & & & @ + o o X X X X X X X ",
"$X$XX X X X X X X o O @ & & & = a j +.5.f.A.U.W.].{.|.+X|.|..X.X.X.X.X.XOX|.{.].U.J.A.f.5.%.` a = & & % @ + o X X X X X X X $X$X",
"$X$XX X X X X X X o O @ % = i d { &.w.S.U.{.@X#X@X@X#X#X#X@X@X@X@X@X@X@X#X#X#X@X#XOXoXW.A.f.2. .g i - % + + o X X X X X X X $X$X",
"$X$X$X$X$X$X$X$X$X$X$X$X$X$Xj +.0.b.U.{.|.+X@X@X@X@X@X@X@X@X@X@X@X@X@X@X@X@X@X@X@X@X+X.X{.R.S.y.%.] $X$X$X$X$X$X$X$X$X$X$X$X$X$X",
"$X$X$X$X$X$X$X$X$X$X$X$X$X$X{ 5.S.]..X@X@X@X@X@X@X@X@X@X@X@X@X@X@X@X@X@X@X@X@X@X@X@X@X@X@X+XoXG.5.O.$X$X$X$X$X$X$X$X$X$X$X$X$X$X",
"$X$X$X$X$X$X$X$X$X$X$X$X$X$X$X$X{..X@X@X@X@X@X@X@X@X+X@X@X@X+X+X@X@X@X@X@X@X@X@X@X@X@X@X@X@X@X{.$X$X$X$X$X$X$X$X$X$X$X$X$X$X$X$X",
"$X$X$X$X$X$X$X$X$X$X$X$X$X$X$X$X@X@X@X@X@X@X@X@X@X@X+X+X+X@X+X+X@X@X@X@X@X@X@X@X@X@X@X@X@X@X@X@X$X$X$X$X$X$X$X$X$X$X$X$X$X$X$X$X",
"$X$X$X$X$X$X$X$X$X$X$X$X$X$X$X$X$X$X$X$X@X@X@X@X@X@XOX@X@X@X+X@X@X@X+X@X@X@X@X@X@X@X@X@X$X$X$X$X$X$X$X$X$X$X$X$X$X$X$X$X$X$X$X$X",
"$X$X$X$X$X$X$X$X$X$X$X$X$X$X$X$X$X$X$X$X@X@X@X@X@X@XOX@X+X@X@X@X@X@X@X@X@X@X@X@X@X@X@X@X$X$X$X$X$X$X$X$X$X$X$X$X$X$X$X$X$X$X$X$X",
"$X$X$X$X$X$X$X$X$X$X$X$X$X$X$X$X$X$X$X$X$X$X$X$XOX@X@X@X@X@X+X+X+X@X@X@X+X@X@X@X$X$X$X$X$X$X$X$X$X$X$X$X$X$X$X$X$X$X$X$X$X$X$X$X",
"$X$X$X$X$X$X$X$X$X$X$X$X$X$X$X$X$X$X$X$X$X$X$X$X@X+X@X@X@X@X+X+X@X@X@X@X+XOX@X@X$X$X$X$X$X$X$X$X$X$X$X$X$X$X$X$X$X$X$X$X$X$X$X$X"
};
