/* XPM */
static char *wall[] = {
/* columns rows colors chars-per-pixel */
"64 64 46 1 ",
"  c #555555",
". c #5C5C5C",
"X c #5F5F60",
"o c #5F6060",
"O c #646464",
"+ c #676768",
"@ c #676868",
"# c #696969",
"$ c #6F6F70",
"% c #747475",
"& c #777878",
"* c #7B7B7B",
"= c #858585",
"- c #878889",
"; c #8A8B8B",
": c #8F8F90",
"> c #8F9090",
", c #919192",
"< c #999A9A",
"1 c #9F9FA0",
"2 c #9FA0A1",
"3 c #A4A4A5",
"4 c #A7A7A8",
"5 c #ACADAD",
"6 c #AEAFB0",
"7 c #AFB0B1",
"8 c #B2B3B4",
"9 c #B7B7B8",
"0 c #B7B8B9",
"q c #BBBBBB",
"w c #BFBFC0",
"e c #C2C2C3",
"r c #C7C7C8",
"t c #C7C8C8",
"y c #CACBCB",
"u c #CFCFD0",
"i c #CFD0D0",
"p c #D3D3D4",
"a c #D7D7D8",
"s c #D7D8D8",
"d c #DEDEDE",
"f c #E2E2E2",
"g c #EBEBEB",
"h c #F4F4F4",
"j c #FDFDFD",
"k c None",
/* pixels */
"kkkk  .                                                   . kkkk",
"kkkk                                                        kkkk",
"kk                                                            kk",
"kk                                                           .kk",
"   .                                                            ",
"     ..O+###oO#@########O.#########+ oOO+++O@@@#X #####OO..  .  ",
"     .#*-,:,::::::,:,,,,::,:::::,,,,,,:=====--;;;::,<,,;*#.    .",
" .   O*,5qwqqqqqqqqqqqqq0qqqqqqqq0qqq0865433558890qqwqq5,*O     ",
"     O=5ifggffffffgfffffgfffgffffffffddayyyyppadffgfgffi5-@     ",
"     #:8fhjjjjjjjjjjjjjjjjjjjjjjjjjjjjhggfffgghhjjjjjjhd9;#     ",
"     #:8dhjjjjjjjjjjjjjjjjjjjjjjjjjjjjjjhghhhhjjjjjjjjhd8;#     ",
"     +-7pghjjjjjjjjjjjjjjjjjjjjjjjjjjjjjjjhjhjjjjjjjjhgp5-@     ",
"     +=4ifghjjjjjjjjjjjjjjjjjjjjjjjjjjjjjjjjjjjjjjjjjhfi4=O     ",
"     O=4yfghhhjjjjjjjjjjjjjjjjjjjjjjjjjjjjjjjjjjjjjjhhfy4=@     ",
"     +=3yfggghhjjjjjjjjjjjjjjjjjjjjjjjjjjjjjjjjjjhgggffy4=o     ",
"     +=3yfgggghhjjjjjjjjjjjjjjjjjjjjjjjjjjjjjjjjhhggffdy4=.     ",
"     X=3yfffggghhjjjjjjjjjjjjjjjjjjjjjjjjjjjjjjhhggfffdy3=+     ",
"      =3ydffdfgghhjjjjjjjjjjjjjjjjjjjjjjjjjjjjhhggffffdy3=+     ",
"     +=3yfffdffgghjjjjjjjjjjjjjjjjjjjjjjjjjjjhhgggffffar4=+     ",
"     O=3raffddffgghhjjjjjjjjjjjjjjjjjjjjjjjjjhggffffffdy4=O     ",
"     O=1wpadfdddfgghhjjjjjjjjjjjjjjjjjjjjjjhhggfdfffffdy3=O     ",
"     O*<9rpddfdddfgghjjjjjjjjjjjjjjjjjjjjjhhggffddffffdy4=+     ",
"     O*,5wypddddddfgghjjjjjjjjjjjjjjjjjjjjhggfffdaddfffy4=o     ",
"     o%;3qypadddddffgghjjjjjjjjjjjjjjjjjjjggffddddddffdy4=.     ",
"     O%;38rpadddddfffgghjjjjjjjjjjjjjjjjhggfddddddddffdy4=+     ",
".    o%=29rpddffddffffgghhjjjjjjjjjjjjjgggffddddddddfffy4=+     ",
"     o%;3qrpdffdffdddffgghjjjjjjjjjjjjhggfffddddfdddffdy4=#     ",
"     O&,5eyadfddfdddadffgghjjjjjjjjjjhhfffddfdfdfdddfffy4=+     ",
"     X*<9ypdddfdddddddfffgghhjjjjjjjhhgfddfffddfdddffffy4=+     ",
"     O=3epddddffddddddddffgghhhjjhhhgffddddddfdddfdfffdy4=+     ",
"     O=3rdfffdddddddfdddddfgghhhhhhgfffdddfddfddfddfffdy4=O     ",
"     O=3ydffffddddffffddddfffffffdffffddfdddfdfddddffffy4=o     ",
"     @-4ydfffffddfdfdfddddddpuyyyyuasfffffddffddddfffffy4=O     ",
"     O-4yfffddddddddfdddfddptew0qqwypsdfffdddffdddffffdt3=O     ",
"     @=4yffffdfdfdddfffddsiye086689wtpaddfffddffffddsspe3=O     ",
"     O=4ydfffddddddddffdsytew8555689wtuasddfddddffddday8<*O     ",
"     +=4ydffddfffdfddddsitw9876566679wtuaddddfdssffdpyw5,&O     ",
"     O=4ydfffdddddfddsdpye876666666679wypaddfffdddfdpyq3;%X     ",
"     O=4tdfffdddddffdsitww876666666668qeypdsddffffddpr81;%O     ",
"     O=4ydfffdddddfddpte0875566666666780wtudsdffffdapr83-$O     ",
"     O=3ydffddddddddptw987666666666666689wtpsddddfddpr03;$X     ",
"     .=4udffddddddsite97766666666666666669wtpaddffddaiw4:%O     ",
"     +=4ydffddffdsptww87656666666666666678qwtuadffdddpy9<*O     ",
"     +=4ydffdffddpte987665666666666666666880wtpsdffddapw1=O    .",
"     +=4udffdddspyw97666666675576666666666679wyaddddffdr3=O     ",
"     +=4ydffddspye9766667666777766666666666669eyiaddffdy4=O     ",
"     O=4ydffdsite08765666657667566666666666668qwriadfffy4=O     ",
"     #=4udffdptw08666666667666756666666666666889qridffdy4=.     ",
"     O=4idfdpye087557575757757776666667666666668qwypsfdy4-O     ",
"     #=5yaaiye08755757575775775766666666666665668qeyassy4=+     ",
"     O=4yapyw9987666577757767577666666666666666688qwypat4=+     ",
"     #=3eiie9888878888887777777777777777767766768889eypr4-+     ",
"     o=2wyrw98888qqwwwwwq987787778788788878788688888qeyw3=+     ",
"     o*<8wq075589weyyiyrwq97777777877777787878868678qqw8<*O     ",
"     O&:488755558qyisspieq777757666666665665555555558884:&o     ",
"     o%=<333221336qeyyywq742222222222222213213131113343<=$X     ",
".    .#%==:;-;-;><234533<<>;--;;;;;;;;;;;;;;;;;;-;;;;;-=%+X   . ",
"     .o#$%%%%%%%**==---=**&&%%%%%%%%%&%%%%%%%&%%%%%%&%%$+X.     ",
"   . ...XXoOooooooo.O++O+oOoooXXoooOOoooOXXXoOXXXXOXXXX...      ",
"             .                                                 .",
"kk. .                                                    .  . kk",
"kk                                                .           kk",
"kkkk                       ..                    .        . kkkk",
"kkkk .     .           .           .                .   .   kkkk"
};
